X:027
T:Coleman's Cross (reel) 
B:CRE3.205 (CrosbhÃÂÃÂÃÂÃÂ³thar an CholmÃÂÃÂÃÂÃÂ¡naigh)
F:file ID: cre.3/027cole_c
N:Kathleen Collins' recording of this is on Tune Vault
(www.capeirish.com/tune_vault)
R:reel % A-B-A
L:1/8
Q:180
M:C
K:Em
gf|edBA G3E|DEGB AEE2|GEDB, DEGA|B3d efge|
edBA GFGE|DEGB AEE2|GEDB, DEGA|(3Bcd gf e2ef||
g2gf gfed|Bcdf edBd|gabf gfed| (3Bcd gf e2ef|
g3e fafa|eafd edBd|dBAF GFGA|B3d efgf||

%%%

